X: 0
T: Alle, die ihr Gott su ehren
L: 1/4
M: 6/4
Q: 1/4=135
K: F
[V: P1]  c2 G A2 F | F2 E F2 F | d2 A B2 G | G2 ^F G2 G | G2 E D2 C | G2 E D2 C | c2 A G2 F | c2 A G2 F | B2 c d2 _e | c2 c B2 B | A2 B c2 c | c2 =B c2 c | A2 G F2 B | E2 E D3 | G2 E D2 C | G2 E D2 C | c2 A G2 F | c2 A G2 F | c2 A G2 F | d2 c B2 A | d2 c B2 A | G2 G F3|]

